X:1
T:My Savior
T:My Savior
T:Charles Millard Fillmore
T:Charles Millard Fillmore, 1902
T:Public Domain Courtesy of the Cyber Hymnal™
T:Public Domain Courtesy of the Cyber Hymnal™
C:Charles Millard Fillmore
Z:Public Domain
Z:Courtesy of the Cyber Hymnal™
%%score ( 1 2 ) 3
L:1/8
Q:1/4=100
M:3/4
K:Ab
V:1 treble 
V:2 treble 
V:3 bass 
V:1
 [A,C]>[B,D] | [CE]3 [CA] [DB][CA] | [Ec]2 [CA]2 [CA]>[EG] | [DF]3 [FA] [EG][DF] | [CE]3 z | %5
w: 1.~I’ve a|Sav- ior, kind and|ten- der, I’ve a|Sav- ior full of|grace;|
w: 2.~For my|sake He came from|Heav- en To this|world of sin and|shame;|
w: 3.~Tho’ I’ve|oft- en been un-|wor- thy, He has|con- stant been, and|true;|
w: 4.~I’ve a|Sav- ior, kind and|ten- der, He would|be your Sav- ior,|too;|
 [CE]>[CA] | [B,G]3 [DB] [DF][DG] | [CA]2 [Ec]2 [Ec]>[Ec] | [=DB]3 [DF] [EG][FA] | %9
w: And a|smile of win- ning|sweet- ness Ev- er|beams up- on His|
w: Bore my|guilt, tho’ He was|guilt- less, And tho’|blame- less, took my|
w: Tho’ I|wronged Him, He for-|gave me When I|would my vows re-|
w: Will you|not ac- cept the|par- don Which He|free- ly of- fers|
 [GB]3 z [Ac]>[Bd] | [ce]3 [Ac] [GB][F=Ac] | [FBd]2 [DF]2 [FA][_FB] | [Ec]3 [CA] [DB][DB] | %13
w: face: In my|heart’s shrine of af-|fect- ion He shall|hold the high- est|
w: blame: Can I|ev- er cease to|love Him, And His|good- ness to pro-|
w: new; Tho’ I|spurned Him, He with|kind- ness My re-|bel- lious heart did|
w: you? Take Him|now as your Re-|deem- er, Earth has|not a friend so|
 [CA]3 z ||"^Refrain" [CA]>[EG] | [DF] [Fd]3- [Fd]2 [EG]>[DF] | [CE] [Ec]3- [Ec]2 [Ec][Ec] | %17
w: place.||||
w: claim?|How I|love Him! * How I|love Him! * Since for|
w: woo.||||
w: true.||||
 [=DB]4- [DB][DF][EG][FA] | B6 [Ec]>[_DB] | [CA]4- [CA][CA][Ec][_Ge] | %20
w: |||
w: me * He bled and|died; How I|love * Him! Yes, I|
w: |||
w: |||
 [_Ge] [Fd]3- [Fd]2 [FB][FB] | [Ec]4- [Ec][EA][DG][DB] | [CA]6 |] %23
w: |||
w: love Him * More than|all * the world be-|side.|
w: |||
w: |||
V:2
 x2 | x6 | x6 | x6 | x4 | x2 | x6 | x6 | x6 | x6 | x6 | x6 | x6 | x4 || x2 | x8 | x8 | x8 | %18
 (GGF=D E2) x2 | x8 | x8 | x8 | x6 |] %23
V:3
 z2 | (A,,E, A,)E, G,E, | (A,,E,) (A,E,) (A,E,) | (D,F, A,)D, F,A, | (A,,E, A,) z | (A,E,) | %6
w: |~ * * ~ ~ ~|~ * ~ * ~ *|~ * * ~ ~ ~|~ * *|~ *|
 (E,,E, G,)E, G,E, | (A,,E,) (A,E,) (A,E,) | (B,,F, B,)A, G,F, | (E,G,B,E,) z2 | (A,,E, A,)C DC | %11
w: ~ * * ~ ~ ~|~ * ~ * ~ *|~ * * ~ ~ ~|~ * * *|~ * * ~ ~ ~|
 (B,,F,) (B,F,) D,=D, | (E,A, C)E, G,E, | (A,E, A,,) z || z2 | z2 [D,A,][D,A,] [D,A,][D,A,] z2 | %16
w: ~ * ~ * ~ ~|~ * * ~ ~ ~|~ * *||How I love Him!|
 z2 [A,,A,][A,,A,] [A,,A,][A,,A,][A,,A,][A,,A,] | %17
w: How I love Him! ~ ~|
 [B,,A,]2 [B,,A,][B,,A,] [B,,A,][A,B,][G,B,][F,B,] | [E,B,][E,B,] [B,,A,][B,,F,] [E,G,]2 z2 | %19
w: ~ Since for me ~ ~ ~|~ He bled and died|
 z2 [A,,A,][A,,A,] [A,,A,][A,,A,][A,,A,][C,A,] | %20
w: How I love Him! ~ ~|
 [D,A,][D,A,] [D,A,][D,A,] [D,A,][D,A,][=D,A,][D,A,] | [E,A,]2 [E,A,][E,C] [E,E][E,C][E,B,][E,G,] | %22
w: ~ ~ Yes, I love Him ~ ~|~ More than all * * *|
 [A,,A,]6 |] %23
w: |

